packages/icons/raw/imported/GenericAbout.svg

<svg width="32" height="32" viewBox="0 0 32 32" fill="none" xmlns="http://www.w3.org/2000/svg">
<path d="M20.1459 22.9248C19.3661 23.7549 19.5554 23.6757 17.8437 24.565C17.3592 24.7197 16.787 24.7939 16.1272 24.7877C15.1155 24.778 14.3247 24.5315 13.7546 24.0879C13.1845 23.6443 12.9228 23.0841 12.9256 22.3672C12.9267 22.0884 12.9278 21.8095 12.9729 21.5311C13.018 21.2527 13.0633 20.9345 13.1966 20.5773L14.2656 17.2416C14.3548 16.9238 14.4441 16.6059 14.4892 16.3276C14.5343 16.0492 14.5794 15.7708 14.5803 15.5318C14.5821 15.0936 14.4952 14.814 14.2759 14.6526C14.1006 14.4916 13.705 14.4081 13.1771 14.4031C12.9132 14.4006 12.6491 14.4379 12.3409 14.5146C12.0767 14.5917 11.9186 14.6001 11.6985 14.6378L11.85 14.458C12.364 13.8258 13.1819 13.2082 13.8423 13.0551C14.4589 12.8618 15.0751 12.7881 15.6029 12.7931C16.6146 12.8027 17.3615 13.0489 17.9316 13.4924C18.4577 13.9356 18.7634 14.4962 18.7606 15.2132C18.7599 15.3725 18.759 15.6115 18.7136 15.9695C18.6682 16.3276 18.6227 16.6856 18.4897 16.9632L17.4207 20.2989C17.3316 20.5769 17.2425 20.8549 17.1971 21.2129C17.1077 21.5706 17.1068 21.8096 17.106 22.0087C17.1043 22.4469 17.191 22.7663 17.4103 22.9278C17.6296 23.0892 18.0252 23.1726 18.553 23.1777C18.8169 23.1802 19.081 23.1429 19.4332 23.0666C19.7415 22.9898 19.9617 22.9123 20.1378 22.8741L20.1459 22.9248Z" stroke="black" stroke-miterlimit="10" stroke-linecap="round" stroke-linejoin="round"/>
<path d="M20.4138 8.3195C20.5961 9.4678 19.829 10.5439 18.7004 10.7231C17.5718 10.9023 16.509 10.1167 16.3267 8.96837C16.1444 7.82008 16.9116 6.74395 18.0402 6.56477C19.1688 6.38559 20.2315 7.17121 20.4138 8.3195Z" stroke="black" stroke-miterlimit="10" stroke-linecap="round" stroke-linejoin="round"/>
</svg>

<svg width="32" height="32" fill="none" xmlns="http://www.w3.org/2000/svg"><path d="M20.146 22.925c-.78.83-.59.75-2.302 1.64-.485.155-1.057.229-1.717.223-1.011-.01-1.802-.256-2.372-.7-.57-.444-.832-1.004-.83-1.72.002-.28.003-.558.048-.837.045-.278.09-.596.224-.954l1.069-3.335c.089-.318.178-.636.223-.914.045-.279.09-.557.091-.796.002-.438-.085-.718-.304-.88-.175-.16-.571-.244-1.099-.249a3.271 3.271 0 0 0-.836.112c-.264.077-.422.085-.643.123l.152-.18c.514-.632 1.332-1.25 1.992-1.403a5.79 5.79 0 0 1 1.76-.262c1.013.01 1.76.256 2.33.7.526.443.831 1.003.829 1.72-.001.16-.002.399-.047.757-.046.358-.091.716-.224.993L17.42 20.3c-.088.278-.178.556-.223.914-.09.358-.09.597-.091.796-.002.438.085.757.304.919.22.161.615.245 1.143.25.264.002.528-.035.88-.111.308-.077.529-.155.705-.193l.008.05ZM20.414 8.32c.182 1.148-.585 2.224-1.714 2.403-1.128.18-2.191-.606-2.373-1.755-.183-1.148.585-2.224 1.713-2.403 1.129-.18 2.192.606 2.374 1.754Z" stroke="#000" stroke-miterlimit="10" stroke-linecap="round" stroke-linejoin="round"/></svg>
